public/images/mood/mood6-ellipse21.svg

<svg preserveAspectRatio="none" width="100%" height="100%" overflow="visible" style="display: block;" viewBox="0 0 6.04644 6.38871" fill="none" xmlns="http://www.w3.org/2000/svg">
<g id="Ellipse 21">
<circle cx="2.99741" cy="3.18169" r="2.5" fill="var(--fill-0, white)"/>
<path d="M5.44762 3.74628L5.94569 3.7902L5.44762 3.74628ZM5.35217 4.10855L4.89672 3.90223L5.35217 4.10855ZM5.27331 4.28263L5.72876 4.48895L5.27331 4.28263ZM5.19445 4.4567L5.6499 4.66302L5.19445 4.4567ZM5.01126 4.80425L5.43973 5.06196L5.01126 4.80425ZM4.80259 5.15119L4.37412 4.89348L4.80259 5.15119ZM4.53822 5.4708L4.87538 5.84002L4.53822 5.4708ZM4.21816 5.76307L3.881 5.39385L4.21816 5.76307ZM3.83967 5.88539L3.78548 6.38244L3.83967 5.88539ZM3.40274 5.83776L3.45692 5.3407L3.40274 5.83776ZM3.01484 5.68159L3.32263 5.28755L3.01484 5.68159ZM2.8454 5.54924L2.53761 5.94328L2.8454 5.54924ZM2.67597 5.41689L2.36818 5.81093L2.67597 5.41689ZM2.00483 5.51045L1.79954 5.05454L2.00483 5.51045ZM1.42348 5.21646L0.929248 5.29217L1.42348 5.21646ZM1.11553 4.62134L0.959073 5.09623L1.11553 4.62134ZM0.658914 4.4709L0.815376 3.99601L0.658914 4.4709ZM0.530648 4.16958L0.0734118 3.96726L0.530648 4.16958ZM0.814857 3.16085L0.315437 3.18491L0.814857 3.16085ZM1.06795 1.57008L0.568372 1.59061L1.06795 1.57008ZM1.27001 1.31857L1.33318 1.81456L1.27001 1.31857ZM1.69258 1.26475L1.62941 0.76876L1.69258 1.26475ZM2.30085 0.734837L1.90837 0.425073L2.30085 0.734837ZM2.62724 0.616709L2.50356 1.10117L2.62724 0.616709ZM3.43593 0.684525L3.60394 1.15545L3.43593 0.684525ZM3.88895 0.522902L3.72094 0.0519755L3.88895 0.522902ZM4.45921 1.05663L4.89558 0.812543L4.45921 1.05663ZM4.65665 1.42678L4.20966 1.65083L4.65665 1.42678ZM4.82236 1.75739L5.26936 1.53335L4.82236 1.75739ZM5.00537 2.06932L5.41825 1.78731L5.00537 2.06932ZM5.20566 2.36257L5.61854 2.08056L5.20566 2.36257ZM5.36905 2.67732L5.83704 2.50129L5.36905 2.67732ZM5.43229 2.84544L4.96429 3.02147L5.43229 2.84544ZM5.49552 3.01357L5.96351 2.83754L5.49552 3.01357ZM5.48081 3.36989L5.97888 3.41381L5.48081 3.36989ZM5.46421 3.55809L4.96615 3.51416L4.94955 3.70236L5.44762 3.74628L5.94569 3.7902L5.96228 3.60201L5.46421 3.55809ZM5.44762 3.74628L4.94955 3.70236C4.9435 3.77102 4.9263 3.83692 4.89672 3.90223L5.35217 4.10855L5.80761 4.31487C5.88317 4.14808 5.92961 3.97247 5.94569 3.7902L5.44762 3.74628ZM5.35217 4.10855L4.89672 3.90223L4.81786 4.07631L5.27331 4.28263L5.72876 4.48895L5.80761 4.31487L5.35217 4.10855ZM5.27331 4.28263L4.81786 4.07631L4.739 4.25038L5.19445 4.4567L5.6499 4.66302L5.72876 4.48895L5.27331 4.28263ZM5.19445 4.4567L4.739 4.25038C4.69488 4.34779 4.64295 4.44652 4.58279 4.54654L5.01126 4.80425L5.43973 5.06196C5.51868 4.93069 5.58888 4.79771 5.6499 4.66302L5.19445 4.4567ZM5.01126 4.80425L4.58279 4.54654L4.47845 4.72001L4.90692 4.97772L5.33539 5.23543L5.43973 5.06196L5.01126 4.80425ZM4.90692 4.97772L4.47845 4.72001L4.37412 4.89348L4.80259 5.15119L5.23106 5.4089L5.33539 5.23543L4.90692 4.97772ZM4.80259 5.15119L4.37412 4.89348C4.33115 4.96493 4.2746 5.03443 4.20106 5.10158L4.53822 5.4708L4.87538 5.84002C5.01522 5.71232 5.13491 5.56875 5.23106 5.4089L4.80259 5.15119ZM4.53822 5.4708L4.20106 5.10158L4.04103 5.24771L4.37819 5.61693L4.71535 5.98615L4.87538 5.84002L4.53822 5.4708ZM4.37819 5.61693L4.04103 5.24771L3.881 5.39385L4.21816 5.76307L4.55532 6.13229L4.71535 5.98615L4.37819 5.61693ZM4.21816 5.76307L3.881 5.39385C3.87783 5.39674 3.8772 5.39679 3.8793 5.39554C3.88152 5.39422 3.88515 5.39243 3.88976 5.39094C3.89436 5.38946 3.89794 5.38891 3.89964 5.38876C3.9012 5.38861 3.89952 5.38895 3.89385 5.38833L3.83967 5.88539L3.78548 6.38244C4.07158 6.41363 4.3409 6.32809 4.55532 6.13229L4.21816 5.76307ZM3.83967 5.88539L3.89385 5.38833L3.67539 5.36452L3.6212 5.86157L3.56701 6.35863L3.78548 6.38244L3.83967 5.88539ZM3.6212 5.86157L3.67539 5.36452L3.45692 5.3407L3.40274 5.83776L3.34855 6.33481L3.56701 6.35863L3.6212 5.86157ZM3.40274 5.83776L3.45692 5.3407C3.40159 5.33467 3.36058 5.3172 3.32263 5.28755L3.01484 5.68159L2.70705 6.07563C2.895 6.22244 3.11259 6.30909 3.34855 6.33481L3.40274 5.83776ZM3.01484 5.68159L3.32263 5.28755L3.15319 5.15521L2.8454 5.54924L2.53761 5.94328L2.70705 6.07563L3.01484 5.68159ZM2.8454 5.54924L3.15319 5.15521L2.98376 5.02286L2.67597 5.41689L2.36818 5.81093L2.53761 5.94328L2.8454 5.54924ZM2.67597 5.41689L2.98376 5.02286C2.68198 4.78713 2.33124 4.81512 2.0504 4.94158L2.25568 5.3975L2.46097 5.85341C2.49419 5.83845 2.49192 5.84667 2.46313 5.84534C2.44811 5.84465 2.42993 5.84145 2.41092 5.83433C2.39202 5.82726 2.37763 5.81831 2.36818 5.81093L2.67597 5.41689ZM2.25568 5.3975L2.0504 4.94158L1.79954 5.05454L2.00483 5.51045L2.21012 5.96636L2.46097 5.85341L2.25568 5.3975ZM2.00483 5.51045L1.79954 5.05454L1.54869 5.16749L1.75398 5.6234L1.95926 6.07932L2.21012 5.96636L2.00483 5.51045ZM1.75398 5.6234L1.54869 5.16749C1.51049 5.18469 1.62528 5.11793 1.78152 5.19694C1.94814 5.2812 1.96159 5.42718 1.95754 5.4007L1.4633 5.47641L0.969068 5.55211C0.991558 5.69894 1.06673 5.95606 1.33024 6.08932C1.58337 6.21733 1.83022 6.13742 1.95926 6.07932L1.75398 5.6234ZM1.4633 5.47641L1.95754 5.4007L1.91772 5.14075L1.42348 5.21646L0.929248 5.29217L0.969068 5.55211L1.4633 5.47641ZM1.42348 5.21646L1.91772 5.14075L1.8779 4.8808L1.38366 4.95651L0.889429 5.03222L0.929248 5.29217L1.42348 5.21646ZM1.38366 4.95651L1.8779 4.8808C1.85433 4.72695 1.79767 4.56854 1.68716 4.4304C1.57479 4.28993 1.42877 4.1981 1.272 4.14645L1.11553 4.62134L0.959073 5.09623C0.958345 5.09599 0.950747 5.09335 0.939589 5.08587C0.928071 5.07815 0.916354 5.06767 0.906284 5.05508C0.885153 5.02867 0.88645 5.01277 0.889429 5.03222L1.38366 4.95651ZM1.11553 4.62134L1.272 4.14645L1.04369 4.07123L0.887224 4.54612L0.730762 5.02101L0.959073 5.09623L1.11553 4.62134ZM0.887224 4.54612L1.04369 4.07123L0.815376 3.99601L0.658914 4.4709L0.502452 4.94579L0.730762 5.02101L0.887224 4.54612ZM0.658914 4.4709L0.815376 3.99601C0.81584 3.99616 0.839201 4.00365 0.870919 4.02815C0.905432 4.0548 0.945793 4.09881 0.972743 4.16212C1.02806 4.29207 0.982105 4.38497 0.987884 4.37191L0.530648 4.16958L0.0734118 3.96726C0.0124948 4.10493 -0.045435 4.3234 0.0526422 4.5538C0.152558 4.78851 0.354795 4.89714 0.502452 4.94579L0.658914 4.4709ZM0.530648 4.16958L0.987884 4.37191L1.08793 4.14582L0.630691 3.94349L0.173455 3.74117L0.0734118 3.96726L0.530648 4.16958ZM0.630691 3.94349L1.08793 4.14582L1.18797 3.91973L0.730735 3.7174L0.273499 3.51508L0.173455 3.74117L0.630691 3.94349ZM0.730735 3.7174L1.18797 3.91973C1.27187 3.73012 1.33268 3.51878 1.32224 3.30202L0.822818 3.32608L0.323397 3.35014C0.323387 3.34993 0.323946 3.36278 0.317071 3.392C0.310205 3.42118 0.297061 3.46183 0.273499 3.51508L0.730735 3.7174ZM0.822818 3.32608L1.32224 3.30202L1.31428 3.13679L0.814857 3.16085L0.315437 3.18491L0.323397 3.35014L0.822818 3.32608ZM0.814857 3.16085L1.31428 3.13679L1.30632 2.97155L0.806897 2.99561L0.307476 3.01967L0.315437 3.18491L0.814857 3.16085ZM0.806897 2.99561L1.30632 2.97155C1.30515 2.94724 1.30917 2.92942 1.31927 2.90947L0.87311 2.68376L0.426953 2.45805C0.338151 2.63359 0.298033 2.82367 0.307476 3.01967L0.806897 2.99561ZM0.87311 2.68376L1.31927 2.90947L1.39344 2.76285L0.947284 2.53714L0.501127 2.31143L0.426953 2.45805L0.87311 2.68376ZM0.947284 2.53714L1.39344 2.76285L1.46762 2.61623L1.02146 2.39052L0.575301 2.16481L0.501127 2.31143L0.947284 2.53714ZM1.02146 2.39052L1.46762 2.61623C1.5672 2.41938 1.59441 2.2038 1.58598 1.99877L1.08641 2.01929L0.586826 2.03982C0.590706 2.13426 0.574619 2.16616 0.575301 2.16481L1.02146 2.39052ZM1.08641 2.01929L1.58598 1.99877L1.57676 1.77417L1.07718 1.79469L0.577599 1.81521L0.586826 2.03982L1.08641 2.01929ZM1.07718 1.79469L1.57676 1.77417L1.56753 1.54956L1.06795 1.57008L0.568372 1.59061L0.577599 1.81521L1.07718 1.79469ZM1.06795 1.57008L1.56753 1.54956C1.56756 1.55029 1.56833 1.5681 1.56079 1.59687C1.5528 1.62736 1.53598 1.6678 1.50365 1.70805C1.4329 1.79611 1.34877 1.81258 1.33318 1.81456L1.27001 1.31857L1.20684 0.822577C1.05039 0.842502 0.862155 0.909859 0.724058 1.08176C0.589435 1.24933 0.562279 1.4423 0.568372 1.59061L1.06795 1.57008ZM1.27001 1.31857L1.33318 1.81456L1.54446 1.78766L1.48129 1.29166L1.41812 0.795669L1.20684 0.822577L1.27001 1.31857ZM1.48129 1.29166L1.54446 1.78766L1.75575 1.76075L1.69258 1.26475L1.62941 0.76876L1.41812 0.795669L1.48129 1.29166ZM1.69258 1.26475L1.75575 1.76075C2.02694 1.72621 2.25957 1.5942 2.42868 1.37994L2.03619 1.07018L1.6437 0.760412C1.63974 0.765433 1.63728 0.767669 1.63666 0.768212C1.6361 0.768698 1.63652 0.768263 1.63775 0.76757C1.63897 0.766876 1.63964 0.766695 1.63909 0.766873C1.63846 0.767077 1.63548 0.767987 1.62941 0.76876L1.69258 1.26475ZM2.03619 1.07018L2.42868 1.37994L2.56101 1.21227L2.16852 0.902506L1.77603 0.592742L1.6437 0.760412L2.03619 1.07018ZM2.16852 0.902506L2.56101 1.21227L2.69334 1.0446L2.30085 0.734837L1.90837 0.425073L1.77603 0.592742L2.16852 0.902506ZM2.30085 0.734837L2.69334 1.0446C2.69304 1.04498 2.6702 1.07301 2.61877 1.09163C2.56496 1.1111 2.52064 1.10553 2.50356 1.10117L2.62724 0.616709L2.75092 0.132247C2.60447 0.0948602 2.44107 0.0924633 2.27846 0.151315C2.11823 0.209302 1.99688 0.312917 1.90837 0.425073L2.30085 0.734837ZM2.62724 0.616709L2.50356 1.10117L2.69762 1.15071L2.8213 0.666252L2.94498 0.18179L2.75092 0.132247L2.62724 0.616709ZM2.8213 0.666252L2.69762 1.15071L2.89168 1.20026L3.01536 0.715794L3.13904 0.231332L2.94498 0.18179L2.8213 0.666252ZM3.01536 0.715794L2.89168 1.20026C3.13541 1.26248 3.37833 1.23594 3.60394 1.15545L3.43593 0.684525L3.26792 0.213598C3.19152 0.240855 3.15406 0.235165 3.13904 0.231332L3.01536 0.715794ZM3.43593 0.684525L3.60394 1.15545L3.83045 1.07464L3.66244 0.603713L3.49443 0.132787L3.26792 0.213598L3.43593 0.684525ZM3.66244 0.603713L3.83045 1.07464L4.05696 0.993829L3.88895 0.522902L3.72094 0.0519755L3.49443 0.132787L3.66244 0.603713ZM3.88895 0.522902L4.05696 0.993829C4.05696 0.993829 4.05677 0.993897 4.05639 0.994019C4.05602 0.994141 4.05544 0.99432 4.05467 0.99454C4.05314 0.994979 4.05079 0.9956 4.04763 0.996269C4.04136 0.997601 4.03162 0.999187 4.01885 0.999791C3.99212 1.00106 3.95612 0.997769 3.9166 0.983402C3.831 0.952273 3.79647 0.896039 3.79367 0.891028L4.23004 0.646938L4.66642 0.402849C4.58722 0.261273 4.45765 0.116084 4.25835 0.0436101C4.06094 -0.0281777 3.87015 -0.00125861 3.72094 0.0519755L3.88895 0.522902ZM4.23004 0.646938L3.79367 0.891028L3.90825 1.09587L4.34463 0.851785L4.781 0.607696L4.66642 0.402849L4.23004 0.646938ZM4.34463 0.851785L3.90825 1.09587L4.02284 1.30072L4.45921 1.05663L4.89558 0.812543L4.781 0.607696L4.34463 0.851785ZM4.45921 1.05663L4.02284 1.30072C4.09646 1.43235 4.15857 1.5489 4.20966 1.65083L4.65665 1.42678L5.10364 1.20274C5.04426 1.08426 4.97473 0.954046 4.89558 0.812543L4.45921 1.05663ZM4.65665 1.42678L4.20966 1.65083L4.29251 1.81614L4.73951 1.59209L5.1865 1.36804L5.10364 1.20274L4.65665 1.42678ZM4.73951 1.59209L4.29251 1.81614L4.37537 1.98144L4.82236 1.75739L5.26936 1.53335L5.1865 1.36804L4.73951 1.59209ZM4.82236 1.75739L4.37537 1.98144C4.44025 2.11089 4.51255 2.2343 4.59249 2.35133L5.00537 2.06932L5.41825 1.78731C5.36465 1.70884 5.31495 1.62431 5.26936 1.53335L4.82236 1.75739ZM5.00537 2.06932L4.59249 2.35133L4.69263 2.49795L5.10552 2.21595L5.5184 1.93394L5.41825 1.78731L5.00537 2.06932ZM5.10552 2.21595L4.69263 2.49795L4.79278 2.64458L5.20566 2.36257L5.61854 2.08056L5.5184 1.93394L5.10552 2.21595ZM5.20566 2.36257L4.79278 2.64458C4.83675 2.70894 4.8728 2.77822 4.90106 2.85334L5.36905 2.67732L5.83704 2.50129C5.78098 2.35224 5.70811 2.21169 5.61854 2.08056L5.20566 2.36257ZM5.36905 2.67732L4.90106 2.85334L4.96429 3.02147L5.43229 2.84544L5.90028 2.66942L5.83704 2.50129L5.36905 2.67732ZM5.43229 2.84544L4.96429 3.02147L5.02753 3.18959L5.49552 3.01357L5.96351 2.83754L5.90028 2.66942L5.43229 2.84544ZM5.49552 3.01357L5.02753 3.18959C5.0477 3.24321 5.05617 3.26936 5.05825 3.27666C5.06082 3.28567 5.05277 3.26108 5.04878 3.22214C5.04768 3.21141 5.03926 3.14032 5.06241 3.05212C5.07477 3.00506 5.1062 2.91341 5.19013 2.82884C5.28729 2.73093 5.41617 2.68169 5.54342 2.68169V3.18169V3.68169C5.67195 3.68169 5.8019 3.63203 5.89994 3.53324C5.98473 3.44779 6.01683 3.35483 6.02964 3.30602C6.05372 3.21431 6.04539 3.13797 6.04358 3.12024C6.03815 3.06729 6.0254 3.02168 6.01998 3.00267C6.00609 2.95392 5.9855 2.89601 5.96351 2.83754L5.49552 3.01357ZM5.54342 3.18169V2.68169H5.52808V3.18169V3.68169H5.54342V3.18169ZM5.52808 3.18169V2.68169H5.51274V3.18169V3.68169H5.52808V3.18169ZM5.51274 3.18169V2.68169C5.2419 2.68169 5.11019 2.88097 5.09134 2.90959C5.05452 2.96548 5.0369 3.01656 5.03056 3.03562C5.01559 3.08063 5.00793 3.12275 5.00414 3.1451C4.99535 3.19687 4.98855 3.26013 4.98274 3.32597L5.48081 3.36989L5.97888 3.41381C5.98413 3.35419 5.98819 3.32335 5.99004 3.31239C5.99158 3.30337 5.98919 3.32197 5.97943 3.3513C5.9757 3.36251 5.96068 3.40771 5.92644 3.45968C5.90889 3.48633 5.87346 3.53466 5.8141 3.57995C5.75094 3.62813 5.64781 3.68169 5.51274 3.68169V3.18169ZM5.48081 3.36989L4.98274 3.32597L4.96615 3.51416L5.46421 3.55809L5.96228 3.60201L5.97888 3.41381L5.48081 3.36989Z" fill="var(--stroke-0, white)"/>
</g>
</svg>

<svg xmlns="http://www.w3.org/2000/svg" fill="none" overflow="visible" preserveAspectRatio="none" style="display:block" viewBox="0 0 6.046 6.389"><circle cx="2.997" cy="3.182" r="2.5" fill="var(--fill-0, white)"/><path fill="var(--stroke-0, white)" d="m5.448 3.746.498.044zm-.096.363-.455-.207zm-.079.174.456.206zm-.079.174.456.206zm-.183.347.429.258zm-.208.347-.429-.258zm-.265.32.337.369zm-.32.292-.337-.37zm-.378.122-.055.497zm-.437-.047.054-.497zm-.388-.156.308-.394zm-.17-.133-.307.394zm-.169-.132-.308.394zm-.671.093L1.8 5.055zm-.582-.294-.494.076zm-.307-.595-.157.475zm-.457-.15.156-.475zM.53 4.17l-.458-.203zm.284-1.01-.5.025zm.253-1.59-.5.02zm.202-.251.063.496zm.423-.054L1.629.769zM2.3.735l-.393-.31zm.326-.118-.123.484zm.809.068.168.47zm.453-.162L3.72.052zm.57.534.437-.244zm.198.37-.447.224zm.165.33.447-.224zm.183.312.413-.282zm.2.294.414-.282zm.164.314.468-.176zm.063.168-.468.176zm.064.169.468-.176zm-.015.356.498.044zm-.017.188-.498-.044-.016.188.498.044.498.044.016-.188zm-.016.188-.498-.044a.6.6 0 0 1-.053.2l.455.207.456.206q.113-.251.138-.525zm-.096.363-.455-.207-.08.174.456.207.456.206.079-.174zm-.079.174-.455-.207-.079.174.455.207.456.206.079-.174zm-.079.174L4.74 4.25a3 3 0 0 1-.156.297l.428.257.429.258q.119-.196.21-.399zm-.183.347-.428-.257-.105.173.429.258.428.257.105-.173zm-.104.174-.429-.258-.104.173.429.258.428.258.104-.174zm-.104.173-.429-.258a1 1 0 0 1-.173.209l.337.369.337.369q.211-.192.356-.431zm-.265.32-.337-.37-.16.147.337.369.337.37.16-.147zm-.16.146-.337-.37-.16.147.337.37.337.368.16-.146zm-.16.146-.337-.37q-.005.005-.002.003l.02-.007h-.005l-.054.496-.055.497a.96.96 0 0 0 .77-.25zm-.378.122.054-.497-.219-.023-.054.497-.054.497.218.023zm-.219-.023.054-.497-.218-.024-.054.497-.054.497.218.024zm-.218-.024.054-.497a.25.25 0 0 1-.134-.053l-.308.394-.308.394c.188.146.406.233.642.259zm-.388-.156.308-.394-.17-.133-.308.394-.307.394.17.133zm-.17-.133.308-.394-.17-.132-.307.394-.308.394.17.132zm-.169-.132.308-.394c-.302-.236-.653-.208-.934-.081l.206.455.205.456c.033-.015.03-.006.002-.008a.17.17 0 0 1-.095-.034zm-.42-.02-.206-.455-.25.113.205.455.205.456.251-.113zm-.251.113L1.8 5.055l-.251.112.205.456.205.456.251-.113zm-.251.113-.205-.456c-.039.018.076-.05.233.03.166.084.18.23.176.204l-.495.075-.494.076c.023.147.098.404.361.537.253.128.5.048.63-.01zm-.29-.147.494-.075-.04-.26-.495.075-.494.076.04.26zm-.04-.26.494-.075-.04-.26-.494.076-.495.075.04.26zm-.04-.26.494-.075a.88.88 0 0 0-.606-.734l-.156.474-.157.475-.02-.01a.2.2 0 0 1-.033-.03c-.02-.027-.02-.043-.017-.024zm-.268-.335.156-.475-.228-.075-.157.475-.156.475.228.075zm-.229-.075.157-.475-.229-.075-.156.475-.157.475.229.075zM.66 4.471l.156-.475s.024.008.056.032c.034.027.075.07.102.134.055.13.01.223.015.21L.53 4.17l-.458-.203a.73.73 0 0 0-.02.587c.1.235.302.343.45.392zM.53 4.17l.457.202.1-.226-.457-.203-.458-.202-.1.226zm.1-.227.457.203.1-.226-.457-.203-.458-.202-.1.226zm.1-.226.457.203a1.4 1.4 0 0 0 .134-.618l-.5.024-.499.024q.002 0-.006.042a1 1 0 0 1-.044.123zm.092-.39.5-.025-.009-.165-.5.024-.499.024.008.165zM.815 3.16l.5-.024-.009-.165-.5.024-.499.024.008.165zm-.008-.165.5-.024a.1.1 0 0 1 .012-.063l-.446-.225-.446-.226a1.1 1.1 0 0 0-.12.562zm.066-.312.446.225.074-.146-.446-.226-.446-.226-.074.147zm.074-.147.446.226.075-.147-.447-.225-.446-.226-.074.146zm.074-.146.447.225c.1-.197.126-.412.118-.617l-.5.02-.5.02c.005.095-.011.127-.01.126zm.065-.372.5-.02-.01-.225-.499.02-.5.021.01.225zm-.009-.224.5-.02-.01-.225-.499.02-.5.02.01.225zm-.01-.225.5-.02s.001.018-.006.047a.3.3 0 0 1-.057.111.28.28 0 0 1-.17.107l-.064-.496-.063-.496a.73.73 0 0 0-.483.259.75.75 0 0 0-.156.509zm.203-.251.063.496.211-.027-.063-.496-.063-.496-.211.027zm.211-.027.063.496.212-.027-.063-.496-.064-.496-.21.027zm.212-.027.063.496c.27-.035.504-.167.673-.381l-.393-.31-.392-.31-.007.008.002-.001-.01.002zm.343-.195.393.31.132-.168-.392-.31-.393-.31-.132.168zM2.17.903l.392.31.132-.168-.392-.31-.393-.31-.132.168zM2.3.735l.392.31s-.023.028-.074.047a.2.2 0 0 1-.115.01l.123-.485.124-.485a.8.8 0 0 0-.473.02.83.83 0 0 0-.37.273zm.326-.118-.123.484.194.05.123-.485.124-.484-.194-.05zm.194.05-.123.484.194.05.123-.485L3.14.23 2.946.18zm.194.049-.123.484c.243.062.486.036.712-.045l-.168-.47-.168-.471c-.076.027-.114.021-.129.017zm.42-.031.169.47.226-.08-.168-.471-.168-.471-.226.08zm.227-.081.168.47.227-.08-.168-.471L3.72.052l-.227.08zM3.89.523l.168.47v.001h-.002l-.007.002-.03.004a.3.3 0 0 1-.101-.017.24.24 0 0 1-.123-.092L4.23.647l.436-.244a.77.77 0 0 0-.408-.36.8.8 0 0 0-.537.009zm.341.124L3.794.89l.114.205.437-.244.436-.244-.115-.205zm.115.205-.437.244.115.205.436-.244.437-.244L4.78.608zm.114.205-.436.244q.11.197.187.35l.447-.224.447-.224a10 10 0 0 0-.208-.39zm.198.37-.447.224.083.165.447-.224.446-.224-.082-.165zm.083.165-.447.224.082.165.447-.224.447-.224-.083-.165zm.082.165-.447.224q.098.195.217.37l.413-.282.413-.282a2 2 0 0 1-.149-.254zm.183.312-.413.282.1.147.414-.282.412-.282-.1-.147zm.1.147-.412.282.1.147.413-.282.413-.282-.1-.147zm.1.147-.412.282q.066.096.108.208l.468-.176.468-.176a2 2 0 0 0-.218-.42zm.164.314-.468.176.063.168.468-.176.468-.176-.063-.168zm.063.168-.468.176.064.169.468-.176.468-.176-.064-.169zm.064.169-.468.176q.029.078.03.087c.003.009-.005-.016-.01-.055 0-.01-.009-.082.014-.17a.496.496 0 0 1 .481-.37v1a.5.5 0 0 0 .487-.376c.024-.092.015-.168.014-.186a1 1 0 0 0-.024-.117 2 2 0 0 0-.056-.165zm.047.168v-.5h-.015v1h.015zm-.015 0v-.5h-.015v1h.015zm-.015 0v-.5a.505.505 0 0 0-.482.354 1 1 0 0 0-.027.11 2 2 0 0 0-.021.18l.498.044.498.044c.005-.06.01-.09.011-.102.002-.009 0 .01-.01.04-.004.01-.02.056-.054.108a.49.49 0 0 1-.413.222zm-.032.188-.498-.044-.017.188.498.044.498.044.017-.188z"/></svg>
